img/garage3.svg

<svg width="60" height="60" viewBox="0 0 60 60" fill="none" xmlns="http://www.w3.org/2000/svg">
<g clip-path="url(#clip0)">
<path d="M21.8492 28.0665C21.3508 29.5001 20.8533 30.9346 20.355 32.3682C20.0922 33.1261 21.2928 33.4519 21.554 32.699C22.0523 31.2654 22.5498 29.831 23.0481 28.3973C23.3118 27.6395 22.1103 27.3136 21.8492 28.0665Z" fill="#E3CEA3"/>
<path d="M18.652 44.8081C21.0044 44.9035 22.7655 43.1175 23.0275 40.8937C23.0499 40.7991 23.064 40.6988 23.0582 40.5852C23.0665 40.4302 23.0433 40.2942 23.0002 40.1756C22.705 38.0679 21.0732 36.3531 18.8262 36.3531C16.5269 36.3531 14.5941 38.2876 14.5941 40.5852C14.5933 42.8223 16.4208 44.7178 18.652 44.8081ZM20.9853 40.5852C20.8361 43.3521 16.667 43.3753 16.667 40.5852C16.6662 37.7926 20.8361 37.8175 20.9853 40.5852Z" fill="#E3CEA3"/>
<path d="M40.9864 44.8081C43.3387 44.9035 45.0999 43.1175 45.3619 40.8937C45.3843 40.7991 45.3984 40.6988 45.3926 40.5852C45.4009 40.4302 45.3777 40.2942 45.3345 40.1756C45.0394 38.0679 43.4076 36.3531 41.1605 36.3531C38.8612 36.3531 36.9285 38.2876 36.9285 40.5852C36.9285 42.8223 38.7551 44.7178 40.9864 44.8081ZM43.3197 40.5852C43.1704 43.3521 39.0014 43.3753 39.0014 40.5852C39.0014 37.7926 43.1712 37.8175 43.3197 40.5852Z" fill="#E3CEA3"/>
<path d="M59.5066 26.1155C51.2838 21.1256 43.0618 16.1357 34.839 11.1457C33.7669 10.4948 32.6417 9.62837 31.4079 9.31329C29.393 8.79838 27.7911 9.54877 26.1551 10.5421C21.6063 13.3024 17.0584 16.0627 12.5096 18.823C8.50387 21.2541 4.49818 23.6852 0.492485 26.1155C-0.646787 26.807 0.393815 28.5997 1.53889 27.9056C9.5453 23.0467 17.5517 18.1887 25.5573 13.3298C26.4793 12.7701 27.4072 12.062 28.3897 11.6109C30.4311 10.6731 31.7827 11.7162 33.4004 12.6979C37.9815 15.4781 42.5626 18.2583 47.1446 21.0385C50.9165 23.3278 54.6883 25.6163 58.461 27.9056C59.6036 28.5997 60.6467 26.8078 59.5066 26.1155Z" fill="#E3CEA3"/>
<path d="M54.476 50.7805C51.9819 50.7805 49.4878 50.7805 46.9936 50.7805C47.0965 50.652 47.1926 50.5177 47.2714 50.3709C47.725 49.526 47.5807 48.4738 47.5757 47.5443C48.9231 47.0493 49.8924 45.7641 49.8924 44.2467V36.9244C49.8924 35.3614 48.8626 34.048 47.4505 33.5878L43.7325 23.8277C43.0932 22.1511 41.187 20.8369 39.3919 20.8369H20.6071C18.812 20.8369 16.9049 22.1503 16.2656 23.8277L12.5485 33.5878C11.1364 34.048 10.1066 35.3606 10.1066 36.9244V44.2467C10.1066 45.7973 11.119 47.1015 12.512 47.5717C12.5037 48.4945 12.3677 49.5343 12.8171 50.3709C12.8959 50.5177 12.9921 50.652 13.0949 50.7805C12.7815 50.7805 12.4672 50.7805 12.1538 50.7805C10.1588 50.7805 8.16303 50.7805 6.16723 50.7805C4.83311 50.7805 4.83145 52.8534 6.16723 52.8534C20.2746 52.8534 34.382 52.8534 48.4894 52.8534C50.4844 52.8534 52.4802 52.8534 54.476 52.8534C55.8093 52.8534 55.8118 50.7805 54.476 50.7805ZM43.9382 47.7707H45.5136C45.5642 48.5609 45.7341 49.7922 44.7259 49.7922C43.7193 49.7922 43.8876 48.5592 43.9382 47.7707ZM18.2026 24.5657C18.5392 23.6834 19.6635 22.909 20.6071 22.909H39.3919C40.3363 22.909 41.4598 23.6834 41.7956 24.5657L45.1612 33.3996H43.3387L41.1099 26.9561C40.5187 25.2464 38.639 23.9073 36.8297 23.9073H23.1701C21.3608 23.9073 19.4803 25.2456 18.8874 26.9537L16.6487 33.3996H14.8378L18.2026 24.5657ZM41.1447 33.3996H18.8427L20.8451 27.6336C21.1511 26.753 22.2373 25.9802 23.1701 25.9802H36.8297C37.7617 25.9802 38.8463 26.753 39.1506 27.6336L41.1447 33.3996ZM12.1795 36.9235C12.1795 36.1234 12.8304 35.4725 13.6305 35.4725H46.3684C47.1686 35.4725 47.8195 36.1234 47.8195 36.9235V44.2459C47.8195 45.046 47.1686 45.6969 46.3684 45.6969H13.6305C12.8304 45.6969 12.1795 45.046 12.1795 44.2459V36.9235ZM15.3627 49.7922C14.3561 49.7922 14.5244 48.56 14.575 47.7707H16.1504C16.2018 48.5609 16.3709 49.7922 15.3627 49.7922ZM17.9082 50.3709C18.3253 49.5932 18.2374 48.6413 18.2167 47.7707H41.8727C41.852 48.6421 41.7633 49.594 42.1812 50.3709C42.2599 50.5177 42.3561 50.652 42.4589 50.7805C34.183 50.7805 25.9072 50.7805 17.6313 50.7805C17.7332 50.652 17.8294 50.5177 17.9082 50.3709Z" fill="#E3CEA3"/>
</g>
<defs>
<clipPath id="clip0">
<rect width="60" height="60" fill="white"/>
</clipPath>
</defs>
</svg>

<svg width="60" height="60" fill="none" xmlns="http://www.w3.org/2000/svg"><g clip-path="url(#clip0)" fill="#E3CEA3"><path d="M21.85 28.067c-.5 1.433-.997 2.868-1.495 4.301-.263.758.938 1.084 1.199.331l1.494-4.302c.264-.757-.938-1.083-1.199-.33zm-3.198 16.741c2.352.096 4.113-1.69 4.375-3.914a1.05 1.05 0 00.031-.309 1.027 1.027 0 00-.058-.41c-.295-2.107-1.927-3.822-4.174-3.822-2.3 0-4.232 1.935-4.232 4.232 0 2.237 1.827 4.133 4.058 4.223zm2.333-4.223c-.149 2.767-4.318 2.79-4.318 0 0-2.792 4.17-2.767 4.318 0zm20.001 4.223c2.353.096 4.114-1.69 4.376-3.914.022-.095.036-.195.03-.309a1.025 1.025 0 00-.058-.41c-.295-2.107-1.926-3.822-4.174-3.822-2.299 0-4.231 1.935-4.231 4.232 0 2.237 1.826 4.133 4.057 4.223zm2.334-4.223c-.15 2.767-4.319 2.79-4.319 0 0-2.792 4.17-2.767 4.319 0z"/><path d="M59.507 26.116l-24.668-14.97c-1.072-.651-2.197-1.518-3.431-1.833-2.015-.515-3.617.236-5.253 1.23l-13.645 8.28L.492 26.116c-1.139.691-.098 2.484 1.047 1.79 8.006-4.86 16.013-9.717 24.018-14.576.922-.56 1.85-1.268 2.833-1.72 2.041-.937 3.393.106 5.01 1.088l13.745 8.34c3.771 2.29 7.543 4.578 11.316 6.868 1.143.694 2.186-1.098 1.046-1.79z"/><path d="M54.476 50.78h-7.482c.102-.128.199-.262.277-.41.454-.844.31-1.896.305-2.826a3.52 3.52 0 002.316-3.297v-7.323c0-1.563-1.03-2.876-2.442-3.336l-3.718-9.76c-.639-1.677-2.545-2.991-4.34-2.991H20.607c-1.795 0-3.702 1.313-4.341 2.99l-3.717 9.76c-1.413.461-2.442 1.774-2.442 3.337v7.323c0 1.55 1.012 2.855 2.405 3.325-.008.922-.144 1.962.305 2.799.079.147.175.281.278.41H6.167c-1.334 0-1.336 2.072 0 2.072h48.309c1.333 0 1.336-2.072 0-2.072zm-10.538-3.01h1.576c.05.79.22 2.022-.788 2.022-1.007 0-.838-1.233-.788-2.021zM18.203 24.567c.336-.883 1.46-1.657 2.404-1.657h18.785c.944 0 2.068.774 2.404 1.657L45.16 33.4h-1.82l-2.23-6.444c-.59-1.71-2.47-3.049-4.28-3.049H23.17c-1.81 0-3.69 1.339-4.283 3.047L16.65 33.4h-1.811l3.365-8.834zM41.145 33.4H18.843l2.002-5.766c.306-.881 1.392-1.654 2.325-1.654h13.66c.932 0 2.016.773 2.32 1.654l1.995 5.766zm-28.966 3.523c0-.8.651-1.45 1.451-1.45h32.738c.8 0 1.451.65 1.451 1.45v7.323c0 .8-.65 1.45-1.45 1.45H13.63c-.8 0-1.45-.65-1.45-1.45v-7.323zm3.184 12.87c-1.007 0-.839-1.233-.788-2.022h1.575c.052.79.22 2.021-.787 2.021zm2.545.578c.417-.778.33-1.73.309-2.6h23.656c-.021.871-.11 1.823.308 2.6.079.147.175.281.278.41H17.63c.102-.129.198-.263.277-.41z"/></g><defs><clipPath id="clip0"><path fill="#fff" d="M0 0h60v60H0z"/></clipPath></defs></svg>
